!!!COM:	Busnoys, Antoine
!!!CDT:	~1430///-1492/11/06
!!!OTL:	Seule a par moy
!!!AGN:	Song; Chanson
!!!SCT:	Bus3054
!!!SCA:	Bus3054
!!!voices:	3
**kern	**kern	**kern
*staff3	*staff2	*staff1
*Ivox	*Ivox	*Ivox
*I"Contratenor	*I"Tenor	*I"Superius
*I'Ct	*I'T	*I'S
*clefGv2	*clefG2	*clefG2
*k[]	*k[]	*k[]
*M2/1	*M2/1	*M2/1
*met(C|)	*met(C|)	*met(C|)
=1-	=1-	=1-
!LO:TX:X=-40:Z=8:t=Florence 229 and Paris 15123&colon; flat sig. No sig. in Rome 2856.	!	!LO:TX:Z=24:t=Rondeau
1G	0g	0r
1E	.	.
=2	=2	=2
1D	1.dd	0r
[1G	.	.
.	4cc	.
.	4b	.
=3	=3	=3
1G]	1a	0r
1F#i	1a	.
=4	=4	=4
[0G	1b	0g
.	1b	.
=5	=5	=5
0G]	1b	1.dd
.	1b	.
.	.	4cc
.	.	4b
=6	=6	=6
0F#i	1cc	1a
.	1cc	1a
=7	=7	=7
[0G	2.b	1b
.	4cc	.
.	2dd	1b
.	[2g	.
=8	=8	=8
0G]	2g]	1b
.	4f	.
.	4e	.
.	2d	1b
.	[2b	.
=9	=9	=9
0F#i	2b]	1cc
.	2a	.
.	2a	1cc
.	2g	.
=10	=10	=10
[0G	0b	2.b
.	.	4cc
.	.	2dd
.	.	[2g
=11	=11	=11
0G]	0B	2g]
.	.	4f
.	.	4e
.	.	2d
.	.	[2b
=12	=12	=12
0F#i	0c	2b]
.	.	2a
.	.	2a
.	.	2g
=13	=13	=13
1G	1r	0b
2r	1B	.
2d	.	.
=14	=14	=14
2c	1c	1r
2.e	.	.
.	1d	1b
4d	.	.
4c	.	.
4B	.	.
=15	=15	=15
1A	2e	1cc
.	2.f	.
1B	.	1dd
.	4d	.
.	[2g	.
=16	=16	=16
0c	4g]	1ee
.	4e	.
.	2.a	.
.	.	1ee
.	4g	.
.	4f	.
.	4e	.
=17	=17	=17
0d	2d	1ff
.	2r	.
.	1dd	1ff
=18	=18	=18
1r	1ee	1gg
1c	1ee	1gg
=19	=19	=19
2d	2dd	1.ff
2.d	2a	.
.	2b	.
4c	.	.
2B	[2dd	4ee
.	.	4dd
=20	=20	=20
1A	2dd]	2.ee
.	2cc#i	.
.	.	4dd
2B	2dd	[1dd
[2B	2d	.
=21	=21	=21
4B]	2f	2dd]
4A	.	.
2G	2g	4cc#i
.	.	4dd
1A	1e	2.cc#i
.	.	4b
=22	=22	=22
1D	1r	[0dd
1G	[1d	.
=23	=23	=23
0B	2d]	0dd]
.	2.g	.
.	4f	.
.	2g	.
=24	=24	=24
0A	4a	1r
.	4g	.
.	4f#i	.
.	4e	.
.	2.f#i	1a
.	4e	.
=25	=25	=25
2r	0g	1b
2.G	.	.
.	.	1b
4F	.	.
2G	.	.
=26	=26	=26
4A	1r	1cc
4G	.	.
4F#i	.	.
4E	.	.
1F#i	1a	1cc
=27	=27	=27
2G	1b	1b
2d	.	.
2e	1b	1g
[2g	.	.
=28	=28	=28
2g]	1cc	1a
4f#i	.	.
4e	.	.
4f#i	1cc	1a
4g	.	.
4a	.	.
4f#i	.	.
=29	=29	=29
1g	1b	2g
.	.	2dd
1e	1g	2ee
.	.	[2gg
=30	=30	=30
0d	1a	2gg]
.	.	4ff#i
.	.	4ee
.	1a	4ff#i
.	.	4gg
.	.	4aa
.	.	4ff#i
=31	=31	=31
1G	2g	1gg
.	2e	.
2r	2d	2ff
2B	[2g	2dd
=32	=32	=32
2c	2g]	2ee
2d	2f	1dd
2G	2g	.
2A	2e	4cc
.	.	4b
=33	=33	=33
1DN	1f#iN	0aN
1r	1r	.
=34	=34	=34
1.d	1.b	0r
4c	4a	.
4d	4b	.
=35	=35	=35
4e	4cc	0r
4d	4b	.
4c	4a	.
4B	4g	.
2d	2b	.
[2c	[2a	.
=36	=36	=36
2c]	4a]	0r
.	4d	.
2B	1g	.
1A	.	.
.	2f#i	.
=37	=37	=37
2r	[0g	0b
2.G	.	.
4A	.	.
2B	.	.
=38	=38	=38
2E	0g]	1b
2.e	.	.
.	.	1b
4d	.	.
[2B	.	.
=39	=39	=39
2B]	0r	0cc
4A	.	.
4G	.	.
1A	.	.
=40	=40	=40
2B	0b	1b
2.G	.	.
.	.	1g
4A	.	.
2B	.	.
=41	=41	=41
2E	1b	1r
2.e	.	.
.	1b	1dd
4d	.	.
[2B	.	.
=42	=42	=42
2B]	0cc	1ee
4A	.	.
4G	.	.
1A	.	1ee
=43	=43	=43
1.B	1b	1.dd
.	1g	.
[2e	.	[2b
=44	=44	=44
1e]	1r	4b]
.	.	4a
.	.	2g
2d	1dd	2f
2B	.	[2g
=45	=45	=45
2c	1ee	2g]
2A	.	2e
1c	1ee	2g
.	.	2a
=46	=46	=46
[0G	1.dd	1b
.	.	2g
.	[2b	[2dd
=47	=47	=47
1G]	4b]	4dd]
.	4a	4cc
.	2g	2b
1r	2f	2a
.	[2g	2g
=48	=48	=48
0r	2g]	2dd
.	2e	1ee
.	2g	.
.	2a	2ff
=49	=49	=49
1E	2b	2gg
.	2cc	2ee
2B	2b	2dd
[2c	[2ee	[2cc
=50	=50	=50
2c]	2ee]	4cc]
.	.	4b
2G	2dd	1b
1A	1cc	.
.	.	2a
=51	=51	=51
1E	2b	2b
.	2ee	2cc
2B	2dd	2b
[2c	[2cc	[2ee
=52	=52	=52
2c]	4cc]	2ee]
.	4b	.
2G	1b	2dd
1A	.	1cc
.	2a	.
=53	=53	=53
1.E	0b	1b
.	.	1r
[2G	.	.
=54	=54	=54
4G]	0r	0dd
4A	.	.
2.B	.	.
4A	.	.
2G	.	.
=55	=55	=55
2F	0r	1dd
2G	.	.
2D	.	[1dd
[2B	.	.
=56	=56	=56
4B]	0r	2dd]
4A	.	.
1G	.	4cc
.	.	4b
.	.	1a
2F#i	.	.
=57	=57	=57
0G	0dd	2g
.	.	2.b
.	.	4a
.	.	2g
=58	=58	=58
1r	1dd	2f
.	.	2g
1G	[1dd	2d
.	.	[2b
=59	=59	=59
0D	2dd]	4b]
.	.	4a
.	4cc	1g
.	4b	.
.	1a	.
.	.	2f#i
=60	=60	=60
0G	2g	2g
.	2.b	2.dd
.	4a	4cc
.	2g	2b
=61	=61	=61
0r	2f	2a
.	2g	2g
.	2d	2f
.	[2b	[2g
=62	=62	=62
1G	4b]	2g]
.	4a	.
.	1g	2b
1d	.	1a
.	2f#i	.
=63	=63	=63
2.e	2g	1g
.	2b	.
4d	.	.
2c	2cc	2r
2B	[2dd	2g
=64	=64	=64
2G	4dd]	2b
.	4cc	.
2A	2a	2cc
2G	2b	2dd
[2c	[2g	[2ee
=65	=65	=65
2c]	2g]	2ee]
2d	2f	1dd
1A	1e	.
.	.	2cc#i
=66	=66	=66
2d	2r	2dd
2B	2d	2ff
2c	2e	2ee
2A	2f	4dd
.	.	4cc
=67	=67	=67
1G	1g	2b
.	.	2.dd
2r	1d	.
.	.	4cc
2f	.	2a
=68	=68	=68
2g	1.dd	2b
4f	.	4a
4e	.	4g
2d	.	2f
[2f	[2cc	[2a
=69	=69	=69
2f]	4cc]	4a]
.	4b	4g
2g	2g	1g
1d	1a	.
.	.	2f#i
=70	=70	=70
0Gl	0gl	0gl
==	==	==
*-	*-	*-
!!!RDF**kern: l=long note in original notation
!!!RDF**kern: i=editorial accidental
!!!RDF**kern: N=signum congruentiae
!!!ENC:	Chris Gage 04-22-2015
!!!END:	2016/02/08/
!!!EED:	Jesse Rodin
!!!EEV:	2016/02/08/
!!!ONB:	Translated from MusicXML and edited on 2016/02/08/ by Craig Sapp
!!muse2ps: C^@{COM}^i2I150v95,95,150Q16
